X:107 
T:Ledlow's Chimes (reel)
T:Derry Brae
S:Jack Wade
F:file ID: cre.4/107ledlow
B:CRE4.150 (Clogra Ledlow)
Q:180
L:1/8
M:4/4
R:reel
K:G
dc|B2GB ADD2|B2GB cedc|BAGB ADFA|BGAF G2 dc|
B2GB ADFA|BDGB c2dc|BGG2 ADD2|GBAF G2:|
dc|Bdd2 edeg|agab gedB|gedB gBdB|ADFA dcBA|
B/A/BGB ADFA|BDGB c2dc|BGG2 ADD2|GBAF G2:|

%%%

